X:399
T:ZÃ¤uerli (G,D) rep.
T:Hanny Christen. Bd.3 Appenzell. S.105 (ZL 03206) orig. G- & D-Dur
M:3/4
L:1/8
K:G
d>b gB dG | Fe df c2 | Fe  df cF |1 Ge dg B2 :|2 G6 |]
K:D
(FA)  B3 A | Ag Ag c2 | (GA) B3 A | Af Af d2 | 
FA B3 A | Ag Ag c2 | (GA) gA cf | d6 |]

